X:1
T:Warumb wendst du dich
T:Gemignano Capilupi
T:Source : Canzonette mit 3 Stimmen/ H.Vecchi und G.Capilupi---Nürnberg---P.Kauffmann---1606. Editor : André Vierendeels (16/02/17).
T:Notes : Original clefs : C1, C2, C4 Editorial accidentals above the staff Original note values have been halved in 3-beat measures Text Middle German by Valentin Hauszmann German contrafactum of "Ti chiamo" (1597)
T:Warumb wendst du dich
T:©
T:©
C:Gemignano Capilupi
Z:©
%%score [ 1 2 3 ]
L:1/8
Q:1/4=90
M:4/4
K:C
V:1 treble nm="Soprano 1" snm="S 1"
V:2 treble nm="Soprano 2" snm="S 2"
V:3 treble-8 nm="Tenor" snm="T"
V:1
"^1)" z4 z2 A2 | _B4 AA x2 | G2 F2 E4 | E6 F2 | G4 G2 d2- | d2 c2 B4 | A8 :: %7
w: War-|umb wendst du|denn von mir,|die- weil|ich dien so|_ treu- lich|dir?|
w: Hab|ich dir doch|leid ge- tan,|dasz du|da- duch könst|_ ur- sach|han?|
[M:6/4] z2 A2 A2 c2 c2 c2 | c2 A4 A2 F2 F2 | F2 B4 A2 G4 |[M:3/4] A6 |[M:4/4] z4 E2 F2 | G4 F2 G2 | %13
w: Ach, Schatz, ge- den- cke,|mich nicht so kren- cke,|mein jun- ges Hert-|ze,|kompt sonst|hie- durch in|
w: Mich zu ver- las- sen,|und nun zu fas- sen,|gegn mir ein zo-|ren,|lieb mich|doch wie zu-|
 A2 GF E4 | D8 :| %15
w: schmer- * * *|tze.|
w: vo- * * *|ren.|
V:2
"^2)""^1)" z2 F2 A4 | F6 F2 | E2 D2 ^C4 |"^-natural" C2 D2 E4- | E2 D2 E2 ^F2 | ^G2 A4 G2 | A8 :: %7
w: War- umb|wendst du|dich von mir,|die- weil ich|_ dien so treu-|* * lich|dir?|
w: Wenn du|in an-|der Lieb ge-|dächtst, wir weist|_ wie du es|tref- fen in-|öchtst,|
[M:6/4] z2 F2 F2 G2 A2 A2 | G2 F4 E2 D2 D2 | C2 D4 F2 E4 |[M:3/4] F6 |[M:4/4] C2 D2 E4 | E4 D4 | %13
w: Ach, Schatz, ge- den- cke,|mich nict so kren- cke,|mein jun- ges Hert-|ze,|kompt sonst hie-|durch in|
w: du findst doch kei- nen,|der es wirdt mei- nen,|mit sol- chem g'mü-|the,|der gleich nach|mir ge-|
 ^C2 D4 C2 | D8 :| %15
w: schmer- * *|tze.|
w: rie- * *|the.|
V:3
"^3)""^1)""^4)" z2 d2 f4 | d6 d2 | c2 _B2 A4 | A2 B2 c4- | c2 B2 c2 d2 | e8 | A8 :: %7
w: War- omb|wendst du|dich von mir,|die- weil ich|_ dieb so treu-|lich|dir?|
w: Denn wech-|sel gar|ge- fähr- lich|ist, der- selb|_ ist klug der|es'er-|mist,|
[M:6/4] z2 d2 d2 e2 f2 f2 | e2 d4 c2 _B2 B2 | A2 G4 F2 c4 |[M:3/4] F6 |[M:4/4] A2 B2 c4- | %12
w: Ach, Schatz, ge- den- cke,|mich nicht so kren- cke,|mein jun- ges Hert-|ze,|kompt sonst hie-|
w: drumb lasz Gott wal- ten,|und thu be- hal- ten|was du thust ha-|ben,|und such kein|
 c4 d2 _B2 | A8 | D8 :| %15
w: * duch in|schmer-|tze.|
w: _ an- dern|Kna-|ben.|

